X:1
T:ALL THE WAY TO GALWAY -- REEL
B:Ryan's Mammoth Collection of Fiddle Tunes
R:reel
Z:Contributed by Ray Davies,  ray:davies99.freeserve.co.uk
Z:Contributed 20001206165756 by John Chambers John.Chambers:weema.com
M:C|
L:1/8
K:G
vdefd cAA2  | BGG2 cAA2 | defd cAAc  | BGAF G2G2 |
 defd cAA2  | BGG2 cAA2 | defd cAAc  | BGAF G2G2 |]
 ABAG EAB=c | GAGF EFG2 | ABAG FA=c2 | BGAF G2G2 |
 BGAG EAB=c | GAGF EFG2 | ABAG FA=c2 | BGAF G2G2 |]
